!!!COM: Clara Schumann
!!!CNT: Deutsch
!!!TXO: Deutsch
!!!OTL: "O weh des Scheidens"
!!!LYR: Ru2ckert, Friedrich
!!!OPS: Op. 
!!!ONM: No. 
!!!ENC: Leigh VanHandel
!!!YOR: Clara Schumann: Seven Songs. Kristin Norderval, Editor
!!!YOR: Hildegard Publishing Company
!!!ODT: 1843/
!!NB: Vocal melody and text encoded.
**kern	**silbe
*staff1	*
*clefG2	*
*k[f#]	*
*met(C)	*
*M4/4	*
*MM[sehr langsam]	*
=0	=0
2.r	.
{4cc	{O
=1	=1
4.f#	weh
8f#	des
8b	Schei-
8b	-dens,
8g	das
8e	er
=2	=2
4d#}	tat,}
4r	.
2r	.
=3	=3
8r	.
{8d#	{da
8e	er
8f#	mich
4g	liess
4cc#	im
=4	=4
4cc#	Seh-
4b}	-nen!}
4r	.
{4dd	{O
=5	=5
4.g#	weh
8g#	des
8a	Bit-
8a	-tens,
8gn	wie
8fn	er
=6	=6
2e}	bat,}
4r	.
{4b	{des
=7	=7
4cc	Wei-
4ee	-nens
4dd#	sei-
4gg	-ner
=8	=8
4gg	Tra2-
4ff#}	-nen!}
4r	.
4r	.
=9	=9
4r	.
8r	.
{8e	{Er
4e	sprach
4e	zu
=10	=10
2.g	mir:
4g	"Dein
=11	=11
2.g	Trau-
4cc	-ern
=12	=12
2.b	lass!"
4b	und
=13	=13
4.b}	schied
{8b	{doch
4b	selbst
4ee	in
=14	=14
4ee	Schmer-
4dd}	-zen,}
4r	.
{8cc	{und
8b	|
=15	=15
4.a#	schied
8a#	doch
4b	selbst
4d	in
=16	=16
4d	Schmer-
4c#}	-zen.}
2r	.
=17	=17
1r	.
=18	=18
1r	.
=19	=19
1r	.
=20	=20
2r	.
4r	.
{4b	{Von
=21	=21
4.e	sei-
8e	-nen
8e	Tra2-
8e	-nen
8e	ward
8e	ich
=22	=22
2.g}	nass,}
{4g	{dass
=23	=23
4.g	ku2hl
8g	mir's
4g	ward
4cc	im
=24	=24
2.b	Her-
4a#	|
=25	=25
1b}	-zen.}
==	==
*-	*-

